X: 42436
T: Westbrook Bell, The
R: reel
M: 4/4
K: Gmajor
g2fg (3efg dB|(3cdc (3BcB AGEG|GE{G}ED ~E3G|1 DEGA (3Bcd ef:|2 DEGA BG{F}G2||
gfga (3bag (3agf|gdBd ecAg|fdad bdad|gfga bgdg|
{a}g3a bgdB|cBcd efga|(3bag (3agf gdBd|cAFD G4||

